icons/unity-panel/24x24/panel/tray-new-im.svg

<?xml version="1.0" encoding="UTF-8" standalone="no"?>
<svg
   xmlns:dc="http://purl.org/dc/elements/1.1/"
   xmlns:cc="http://creativecommons.org/ns#"
   xmlns:rdf="http://www.w3.org/1999/02/22-rdf-syntax-ns#"
   xmlns:svg="http://www.w3.org/2000/svg"
   xmlns="http://www.w3.org/2000/svg"
   xmlns:sodipodi="http://sodipodi.sourceforge.net/DTD/sodipodi-0.dtd"
   xmlns:inkscape="http://www.inkscape.org/namespaces/inkscape"
   id="svg3795"
   width="24"
   height="24"
   version="1.1"
   sodipodi:docname="im-message-new.svg"
   inkscape:version="1.0.2 (e86c870879, 2021-01-15)">
  <defs
     id="defs9" />
  <sodipodi:namedview
     pagecolor="#ffffff"
     bordercolor="#666666"
     borderopacity="1"
     objecttolerance="10"
     gridtolerance="10"
     guidetolerance="10"
     inkscape:pageopacity="0"
     inkscape:pageshadow="2"
     inkscape:window-width="1301"
     inkscape:window-height="744"
     id="namedview7"
     showgrid="true"
     inkscape:zoom="19.666667"
     inkscape:cx="12"
     inkscape:cy="12"
     inkscape:window-x="65"
     inkscape:window-y="24"
     inkscape:window-maximized="1"
     inkscape:current-layer="svg3795"
     inkscape:document-rotation="0">
    <inkscape:grid
       type="xygrid"
       id="grid842" />
  </sodipodi:namedview>
  <metadata
     id="metadata3800">
    <rdf:RDF>
      <cc:Work
         rdf:about="">
        <dc:format>image/svg+xml</dc:format>
        <dc:type
           rdf:resource="http://purl.org/dc/dcmitype/StillImage" />
        <dc:title />
      </cc:Work>
    </rdf:RDF>
  </metadata>
  <path
     id="path1652"
     style="font-style:normal;font-variant:normal;font-weight:normal;font-stretch:normal;font-size:15px;line-height:125%;font-family:Ubuntu;-inkscape-font-specification:Ubuntu;text-align:center;letter-spacing:0px;word-spacing:0px;writing-mode:lr-tb;text-anchor:middle;display:inline;fill:#ffffff;fill-opacity:1;stroke:none;stroke-width:0.204501"
     d="M 6.2675781,5 C 5.2381721,5.0119 4.485063,4.976575 3.869141,5.3164062 3.56118,5.4863212 3.318307,5.7719924 3.183594,6.1308594 3.048887,6.4897254 2.999962,6.9170621 3,7.4550781 v 7.0898439 c 3.8e-5,0.538016 0.04888,0.965353 0.183594,1.324219 0.134713,0.358867 0.379539,0.644536 0.6875,0.814453 C 4.487016,17.023418 5.2401253,16.9881 6.2695312,17 H 6.2714812 7 L 9.3417969,19.017578 12,17 h 5.732422 0.002 c 1.029406,-0.0119 1.782515,0.02342 2.398437,-0.316406 0.307962,-0.169917 0.550836,-0.455586 0.685547,-0.814453 C 20.953113,15.510275 21.002,15.082938 21.002,14.544922 V 7.1816406 c 0,-0.538016 -0.05084,-0.6919152 -0.185547,-1.0507812 C 20.681695,5.7719924 20.43882,5.4863212 20.130859,5.3164062 19.514937,4.9765802 18.761828,5.0119 17.732422,5 H 17.728522 6.2714904 Z M 17.568359,6 c 1.030531,0.012021 1.708306,0.04764 2.007813,0.2128906 0.150035,0.08278 0.236576,0.1759919 0.316406,0.3886719 0.07983,0.212677 0.133043,0.5504722 0.13086,1.0351563 l -0.03125,6.8964842 c -0.01052,0.395872 -0.05278,0.699487 -0.123047,0.886719 -0.07983,0.212678 -0.166372,0.303939 -0.316407,0.386719 C 19.253227,15.971896 18.5735,15.98798 17.542969,16 H 6.4589844 6.3125 C 5.281699,15.98799 4.746819,15.95238 4.447266,15.787109 4.297232,15.704329 4.210689,15.611116 4.130859,15.398438 4.051024,15.185757 4.000747,14.847969 4,14.363281 L 3.9902,7.6699219 C 3.989453,7.1852335 4.04122,6.8474438 4.12106,6.6347656 4.2009,6.4220868 4.287431,6.3308259 4.437466,6.2480469 4.737533,6.0824909 5.4153325,6.0363231 6.4491848,6.0332031 Z M 7,9 v 1 h 5 V 9 Z m 0,3 v 1 h 10 v -1 z" />
</svg>

<svg xmlns="http://www.w3.org/2000/svg" width="24" height="24"><path style="font-style:normal;font-variant:normal;font-weight:400;font-stretch:normal;font-size:15px;line-height:125%;font-family:Ubuntu;-inkscape-font-specification:Ubuntu;text-align:center;letter-spacing:0;word-spacing:0;writing-mode:lr-tb;text-anchor:middle;display:inline;fill:#fff;fill-opacity:1;stroke:none;stroke-width:.204501" d="M6.268 5c-1.03.012-1.783-.023-2.399.316-.308.17-.55.456-.685.815C3.049 6.49 3 6.917 3 7.455v7.09c0 .538.049.965.184 1.324.134.359.38.645.687.815.616.34 1.37.304 2.399.316H7l2.342 2.018L12 17h5.734c1.03-.012 1.783.023 2.399-.316.308-.17.55-.456.685-.815.135-.359.184-.786.184-1.324V7.182c0-.538-.05-.692-.186-1.051a1.533 1.533 0 0 0-.685-.815c-.616-.34-1.37-.304-2.399-.316H6.271zm11.3 1c1.03.012 1.709.048 2.008.213.15.083.237.176.317.389.08.212.133.55.13 1.035l-.03 6.896c-.011.396-.054.7-.124.887-.08.213-.166.304-.316.387-.3.165-.98.181-2.01.193H6.313c-1.031-.012-1.566-.048-1.866-.213-.15-.083-.236-.176-.316-.389-.08-.212-.13-.55-.131-1.035L3.99 7.67c0-.485.051-.823.131-1.035.08-.213.166-.304.316-.387.3-.166.978-.212 2.012-.215zM7 9v1h5V9zm0 3v1h10v-1z"/></svg>
